X: 62
T: FAIR HAIRED GIRL
B: O'Neill's 62
M: 3/4
L: 1/16
Z: Transcribed by John Chambers <jc@trillian.mit.edu>
N: "Very slow"
N: "Collected by J.O'Neill"
K:G
(d2 .g2.g2) \
|gaba/g/ g2fe d2B2 \
|c4 .B2Bc .d2cB \
|B2G2 TA3G .G2.G2 \
|G6 d2 .g2.g2|
|gaba/g/ g2fe d2B2 \
|c4 .B2Bc dgdc \
|B3G TA3G .G2.G2 \
|G6||G2 GABc|
|.de/f/.g.a b2c'b a2f2 \
|g3a b2ag f2d2 \
|e3d e2fede .d2.d2 \
|d6 d2e3f|
|gaba/g/ g2fe d2B2 \
|c4 BcBc dgdc \
|B2G2 TA3G .G2.G2 \
|G6||
